src/assets/logo/lorry-white.svg

<svg width="200" height="95" viewBox="0 0 266 117" fill="none" xmlns="http://www.w3.org/2000/svg">
<g clip-path="url(#clip0_301_2)">
<path d="M66.6947 83.158C55.894 83.1957 36.4743 83.2112 34.6669 83.0956C33.0028 82.8975 30.4897 82.5849 28.9142 81.2441C26.4209 79.5741 24.4757 76.4347 22.8832 71.41C22.1409 69.0819 21.0769 66.4973 15.7127 48.6758L0 58.996C3.93254 71.2873 5.66807 75.4502 8.44412 83.3288C15.2317 102.599 32.7777 99.937 32.7777 99.937L58.759 99.9319L66.6947 83.1584V83.158Z" fill="#16498B"/>
<path d="M35.1886 0L74.9608 0.22955C73.4529 8.8512 72.402 17.5022 70.1744 25.4904L50.9021 25.5035V29.9007H68.7375C67.4802 35.3397 64.6025 44.6456 60.8836 51.6794H41.2741V51.8172H41.0346L41.2741 56.0774H58.7636C55.9046 62.2987 48.6253 73.7989 40.141 79.6528C39.9861 79.687 36.0123 79.9967 34.7518 79.4368C30.6202 78.3899 29.1373 75.1321 27.8585 72.9629C27.2556 71.9395 26.059 68.4759 26.059 68.4759L19.3806 46.2755C31.2176 33.8015 35.021 16.8172 35.1878 0H35.1886Z" fill="#16498B"/>
<path d="M204.487 100.356H251.982L255.834 86.0771H208.058L204.487 100.356Z" fill="#16498B"/>
<path d="M152.854 68.6728C152.87 68.6184 152.873 68.6076 152.886 68.5532C152.893 68.5532 152.925 68.5532 152.936 68.5532C152.909 68.6025 152.881 68.6378 152.854 68.6728ZM186.079 68.6728C186.094 68.6184 186.099 68.6076 186.113 68.5532C186.12 68.5532 186.152 68.5532 186.162 68.5532C186.131 68.6025 186.105 68.6378 186.079 68.6728H186.079Z" fill="#16498B"/>
<path d="M83.9187 31.3164L55.325 99.8825H91.9617L99.0623 82.9673C99.0623 82.9673 87.3214 82.9673 82.5585 82.9673C86.5248 73.4556 104.1 31.3168 104.1 31.3168H83.9187V31.3164Z" fill="#16498B"/>
<path d="M121.697 99.8218L139.871 99.8091C139.871 99.8091 142.919 92.8118 144.653 88.8335C145.338 92.5457 146.677 99.7987 146.677 99.7987H165.424C165.424 99.7987 162.481 85.6889 161.576 81.3493C163.628 80.2194 165.552 78.9212 167.188 77.2782C169.915 74.5363 171.786 71.1351 172.752 67.17C173.047 65.9607 173.204 64.8483 173.249 63.8316C173.436 59.6076 171.706 56.9864 170.029 55.4522C167.419 53.0562 163.64 51.8715 158.485 51.8378L142.668 51.731L121.697 99.8218H121.697Z" fill="#16498B"/>
<path d="M156.422 99.8326L174.591 99.7921C174.591 99.7921 177.644 92.7829 179.377 88.805C180.07 92.545 181.421 99.8326 181.421 99.8326L200.234 99.7909C200.234 99.7909 197.24 85.689 196.317 81.3431C198.363 80.2128 200.283 78.9161 201.914 77.2783C204.64 74.5388 206.51 71.1388 207.48 67.1741C207.775 65.9632 207.931 64.8539 207.977 63.8357C208.164 59.6168 206.438 56.9944 204.763 55.4579C202.148 53.0567 198.369 51.872 193.211 51.8383L177.397 51.7314L156.422 99.8326H156.422Z" fill="#16498B"/>
<path d="M226.468 54.4162C226.468 54.4162 223.184 58.2419 220.565 61.294C219.853 58.2602 218.332 51.7681 218.332 51.7681L199.875 51.7407C199.875 51.7407 205.41 76.0496 205.948 78.4114C205.048 80.7574 191.544 116.329 191.544 116.329L218.731 94.5518C218.731 94.5518 223.439 83.3305 223.99 82.0282C225.051 80.859 265.476 39.3203 265.476 39.3203L226.469 54.4166L226.468 54.4162Z" fill="#16498B"/>
<path d="M113.545 52.5204L113.541 52.5219C110.176 53.9791 107.087 56.0724 104.365 58.7472C101.682 61.3588 99.3374 64.4753 97.4137 67.992C95.5355 71.4213 94.0844 75.1184 93.0994 78.9802C91.5534 85.0502 91.8969 90.1035 94.1185 94.0003C95.7512 96.8689 99.2504 100.387 106.641 100.832C110.471 101.063 114.117 100.45 117.477 99.0079C120.691 97.6238 123.748 95.5559 126.569 92.8557C129.213 90.3144 131.563 87.2178 133.562 83.6423C135.529 80.1165 137.046 76.278 138.075 72.2311C139.601 66.2366 139.248 61.2322 137.025 57.3612C134.635 53.2205 130.416 50.9457 124.477 50.5918C120.712 50.3639 117.033 51.0136 113.545 52.52V52.5204Z" fill="#16498B"/>
<path d="M89.0211 95.3467H62.0569L86.8674 35.8511H97.3683L75.9336 86.8609H92.4207L89.0211 95.3467Z" fill="#FEFEFE"/>
<path d="M168.344 66.2832C167.582 69.4079 166.148 72.0319 164.04 74.1514C161.93 76.2714 159.383 77.8652 156.393 78.9275L159.799 95.2629H150.492L147.868 81.0471L143.217 80.9506L136.975 95.2745L128.548 95.2812L145.553 56.2866L158.254 56.3724C162.233 56.3986 165.109 57.2291 166.884 58.8593C168.665 60.4896 169.152 62.965 168.343 66.2828L168.344 66.2832ZM158.875 67.9095C159.259 66.3416 159.105 65.2272 158.428 64.5711C157.745 63.9094 156.588 63.5746 154.952 63.5615L150.796 63.5341L146.228 74.0005L150.361 74.0291C152.586 74.0418 154.441 73.5105 155.933 72.4298C157.423 71.3488 158.405 69.8412 158.875 67.9091L158.875 67.9095Z" fill="#FEFEFE"/>
<path d="M203.073 66.2833C202.309 69.408 200.875 72.032 198.767 74.1515C196.656 76.2715 194.108 77.8652 191.123 78.9276L194.591 95.2686L185.232 95.2892L182.592 81.0472L177.901 81.0146L171.693 95.263L163.277 95.2817L180.282 56.2871L192.98 56.3729C196.959 56.3991 199.838 57.2295 201.613 58.8598C203.392 60.4901 203.881 62.9655 203.073 66.2833H203.073ZM193.604 67.9096C193.986 66.3417 193.834 65.2273 193.152 64.5712C192.475 63.9095 191.318 63.5747 189.681 63.5616L185.525 63.5342L180.958 74.0006L185.087 74.0292C187.314 74.0419 189.173 73.5105 190.665 72.4299C192.15 71.3489 193.134 69.8413 193.604 67.9092V67.9096Z" fill="#FEFEFE"/>
<path d="M246.725 51.1221L220.136 79.6705L215.538 90.5384L201.382 102.807L210.681 78.5557L205.61 56.285L214.686 56.2977L218.119 70.9567L229.209 58.0364L246.725 51.1221Z" fill="#FEFEFE"/>
<path d="M133.666 71.4787C132.735 75.1468 131.384 78.5555 129.628 81.7025C127.868 84.8494 125.851 87.5199 123.566 89.7165C121.178 92.0005 118.655 93.7165 115.987 94.8651C113.315 96.0108 110.421 96.493 107.299 96.3051C102.851 96.0371 99.7909 94.4417 98.1237 91.5124C96.4541 88.5838 96.2508 84.6596 97.5065 79.737C98.3942 76.2548 99.6801 72.974 101.368 69.8917C103.053 66.8111 105.067 64.1287 107.418 61.84C109.699 59.5977 112.24 57.8721 115.044 56.6588C117.846 55.4491 120.772 54.936 123.819 55.1199C128.29 55.3868 131.355 56.9674 133.025 59.8606C134.689 62.7554 134.903 66.6264 133.666 71.4791L133.666 71.4787ZM117.954 83.5381C119.182 81.9654 120.253 80.2267 121.159 78.3275C122.069 76.4276 122.875 74.0955 123.581 71.3338C124.187 68.9457 124.254 67.0863 123.786 65.7479C123.314 64.4135 122.212 63.6935 120.473 63.589C119.128 63.508 117.833 63.865 116.595 64.6633C115.354 65.4616 114.145 66.6228 112.962 68.1546C111.863 69.5724 110.829 71.3473 109.863 73.4799C108.897 75.611 108.123 77.8148 107.543 80.0881C106.866 82.7557 106.83 84.6918 107.444 85.8939C108.052 87.0969 109.148 87.7438 110.725 87.8388C111.879 87.9063 113.093 87.5627 114.367 86.8026C115.64 86.0449 116.84 84.9547 117.954 83.5381Z" fill="#FEFEFE"/>
</g>
<defs>
<clipPath id="clip0_301_2">
<rect width="265.476" height="116.329" fill="white"/>
</clipPath>
</defs>
</svg>

<svg xmlns="http://www.w3.org/2000/svg" fill="none" viewBox="0 0 266 117">
    <g clip-path="url(#a)">
        <path fill="#16498B" d="M66.695 83.158c-10.801.038-30.22.053-32.028-.062-1.664-.199-4.177-.511-5.753-1.852-2.493-1.67-4.438-4.81-6.03-9.834-.743-2.328-1.807-4.913-7.171-22.734L0 58.996C3.933 71.287 5.668 75.45 8.444 83.329c6.788 19.27 24.334 16.608 24.334 16.608l25.981-.005 7.936-16.774Z"/>
        <path fill="#16498B" d="M35.189 0 74.96.23c-1.508 8.621-2.559 17.272-4.787 25.26l-19.272.014V29.9h17.835c-1.257 5.439-4.134 14.745-7.853 21.778h-19.61v.138h-.24l.24 4.26h17.49C55.904 62.3 48.625 73.8 40.14 79.653c-.155.034-4.129.344-5.39-.216-4.13-1.047-5.614-4.305-6.892-6.474-.603-1.023-1.8-4.487-1.8-4.487l-6.678-22.2C31.218 33.8 35.02 16.817 35.188 0Zm169.298 100.356h47.495l3.852-14.279h-47.776l-3.571 14.279Zm-51.633-31.683c.016-.055.019-.065.032-.12h.05c-.027.05-.055.085-.082.12Zm33.225 0c.015-.055.02-.065.034-.12h.049c-.031.05-.057.085-.083.12ZM83.919 31.316 55.325 99.882h36.637l7.1-16.915H82.558l21.542-51.65H83.919Z"/>
        <path fill="#16498B" d="m121.697 99.822 18.174-.013 4.782-10.975 2.024 10.965h18.747l-3.848-18.45c2.052-1.13 3.976-2.428 5.612-4.07 2.727-2.743 4.598-6.144 5.564-10.109.295-1.21.452-2.322.497-3.338.187-4.224-1.543-6.846-3.22-8.38-2.61-2.396-6.389-3.58-11.544-3.614l-15.817-.107-20.971 48.09Z"/>
        <path fill="#16498B" d="m156.422 99.833 18.169-.04 4.786-10.988 2.044 11.028 18.813-.042-3.917-18.448c2.046-1.13 3.966-2.427 5.597-4.065 2.726-2.74 4.596-6.14 5.566-10.104.295-1.21.451-2.32.497-3.338.187-4.22-1.539-6.842-3.214-8.378-2.615-2.401-6.394-3.586-11.552-3.62l-15.814-.107-20.975 48.102Z"/>
        <path fill="#16498B" d="m226.468 54.416-5.903 6.878-2.233-9.526-18.457-.027 6.073 26.67c-.9 2.346-14.404 37.918-14.404 37.918l27.187-21.777s4.708-11.222 5.259-12.524c1.061-1.169 41.486-42.708 41.486-42.708l-39.007 15.097h-.001ZM113.545 52.52l-.004.002c-3.365 1.457-6.454 3.55-9.176 6.225-2.683 2.612-5.028 5.728-6.951 9.245a47.13 47.13 0 0 0-4.315 10.988c-1.546 6.07-1.202 11.123 1.02 15.02 1.632 2.869 5.131 6.387 12.522 6.832 3.83.231 7.476-.382 10.836-1.824 3.214-1.384 6.271-3.452 9.092-6.152 2.644-2.542 4.994-5.638 6.993-9.214 1.967-3.525 3.484-7.364 4.513-11.41 1.526-5.995 1.173-11-1.05-14.87-2.39-4.142-6.609-6.416-12.548-6.77a23.72 23.72 0 0 0-10.932 1.928Z"/>
        <path fill="#FEFEFE" d="M89.021 95.347H62.057l24.81-59.496h10.501l-21.434 51.01H92.42l-3.4 8.486Zm79.323-29.064c-.762 3.125-2.196 5.749-4.304 7.868-2.11 2.12-4.657 3.714-7.647 4.776l3.406 16.336h-9.307l-2.624-14.216-4.651-.096-6.242 14.324-8.427.006 17.005-38.994 12.701.085c3.979.027 6.855.857 8.63 2.487 1.781 1.63 2.268 4.106 1.459 7.424h.001Zm-9.469 1.626c.384-1.567.23-2.682-.447-3.338-.683-.662-1.84-.996-3.476-1.01l-4.156-.027-4.568 10.467 4.133.028c2.225.013 4.08-.519 5.572-1.6 1.49-1.08 2.472-2.588 2.942-4.52Zm44.198-1.626c-.764 3.125-2.198 5.749-4.306 7.868-2.111 2.12-4.659 3.714-7.644 4.777l3.468 16.34-9.359.021-2.64-14.242-4.691-.032-6.208 14.248-8.416.019 17.005-38.995 12.698.086c3.979.026 6.858.857 8.633 2.487 1.779 1.63 2.268 4.105 1.46 7.423Zm-9.469 1.627c.382-1.568.23-2.683-.452-3.339-.677-.661-1.834-.996-3.471-1.01l-4.156-.027-4.567 10.467 4.129.028c2.227.013 4.086-.519 5.578-1.6 1.485-1.08 2.469-2.588 2.939-4.52Zm53.121-16.788-26.589 28.549-4.598 10.867-14.156 12.269 9.299-24.251-5.071-22.271 9.076.013 3.433 14.659 11.09-12.92 17.516-6.915ZM133.666 71.479c-.931 3.668-2.282 7.076-4.038 10.224-1.76 3.146-3.777 5.817-6.062 8.013-2.388 2.285-4.911 4-7.579 5.15-2.672 1.145-5.566 1.627-8.688 1.44-4.448-.269-7.508-1.864-9.175-4.794-1.67-2.928-1.873-6.852-.617-11.775a42.008 42.008 0 0 1 3.861-9.845c1.685-3.08 3.699-5.763 6.05-8.052 2.281-2.242 4.822-3.968 7.626-5.181a18.963 18.963 0 0 1 8.775-1.54c4.471.268 7.536 1.848 9.206 4.742 1.664 2.894 1.878 6.765.641 11.618Zm-15.712 12.06a28.09 28.09 0 0 0 3.205-5.212c.91-1.9 1.716-4.231 2.422-6.993.606-2.388.673-4.248.205-5.586-.472-1.335-1.574-2.055-3.313-2.159-1.345-.081-2.64.276-3.878 1.074-1.241.799-2.45 1.96-3.633 3.492-1.099 1.417-2.133 3.192-3.099 5.325a39.829 39.829 0 0 0-2.32 6.608c-.677 2.668-.713 4.604-.099 5.806.608 1.203 1.704 1.85 3.281 1.945 1.154.067 2.368-.276 3.642-1.036 1.273-.758 2.473-1.848 3.587-3.265Z"/>
    </g>
    <defs>
        <clipPath id="a">
            <path fill="#fff" d="M0 0h265.476v116.329H0z"/>
        </clipPath>
    </defs>
</svg>
